X:1
T:Title
%%score { ( 1 3 ) | ( 2 4 ) }
L:1/8
M:4/4
K:G
V:1 treble nm="Grand Piano"
V:3 treble 
V:2 bass 
V:4 bass 
V:1
 z4 z2[Q:1/4=116] D2 | G2 G2 F2 F2 | E2 E2 D2 D2 | G4 z4 | [DG]6 z2 | G2 G2 F2 F2 | E2 E2 D2 D2 | %7
 G4 z4 |[M:9/8] [DG]6- [DG] z z |[M:4/4] F2 [FA]2 [FA]2 [FA]2 | G2 B2 B2 B2 | %11
 [FA]2 [Fc]2 [Fc]2 [Fc]2 | B2 d2 d2 B2 | G2 G2 A2 B2 | [=Fd]2 [Fd]2 [Ec]2 [EA]2 | [DG]4 z4 | %16
 [DG]8 | d4 B4 | d6 z2 | c4 A4 | [Ac]6 z2 | B2 G2 A2 B2 | [=Fd]2 [Fd]2 [Ec]2 [EA]2 | d4 z4 | %24
[M:7/8] z2 G- G- G3 |[M:4/4] d4 B4 | d6 z2 | c4 A4 | [Ac]6 z2 | B2 G2 A2 B2 | %30
 [=Fd]2 [Fd]2 [Ec]2 [EA]2 | d4 z4 |[M:7/8] z2 G- G- G3 |] %33
V:2
 z4 z2 [G,B,]2 | [G,B,D]2 [G,B,D]2 [G,B,D]2 [G,B,D]2 | [G,C]2 [G,C]2 [G,B,]2 [B,,G,]2 | D4 z4 | %4
 B,,2 A,,2 G,,2 [G,B,]2 | [G,B,D]2 [G,B,D]2 [G,B,D]2 [G,B,D]2 | [G,C]2 [G,C]2 [G,B,]2 [B,,G,]2 | %7
 D4 z4 |[M:9/8] B,,2 A,,- A,, G,,2- G,, [G,B,D]2 |[M:4/4] [D,A,D]2 [D,C]2 [D,C]2 [D,C]2 | %10
 [G,B,]2[K:treble] [G,DG]2 [G,DG]2 [G,DG]2 | [D,C]2 [D,A,]2 [D,A,]2 [D,A,]2 | %12
 [G,G]2 [G,B,G]2 [G,B,G]2 [G,DG]2 | [G,B,D]2 [G,B,D]2 [G,CG]2 [G,DG]2 | %14
 [B,,G,]2 [B,,G,]2 [C,G,]2 [C,C]2 | [D,B,]2 D,2 D,2 C,2 | B,,2 A,,2 G,,4 | B,4 G,4 | [G,G]2 z2 z4 | %19
 A4 F4 | D,2 D,2 D,2 D,2 | [G,DG]2 [G,B,]2 [G,CG]2 [G,DG]2 | [B,,G,]2 [B,,G,]2 [C,G,]2 [C,C]2 | %23
 z4 A,4 |[M:7/8] B,,2 A,,2 G,,3 |[M:4/4][K:treble] B,4 G,4 | [G,G]2 z2 z4 | A4 F4 | %28
 D,2 D,2 D,2 D,2 | [G,DG]2 [G,B,]2 [G,CG]2 [G,DG]2 | [B,,G,]2 [B,,G,]2 [C,G,]2 [C,C]2 | z4 A,4 | %32
[M:7/8] B,,2 A,,2 G,,3 |] %33
V:3
 x8 | x8 | x8 | z2 B,2 [A,DF]4 | G,2 C2 B,2 D2 | x8 | x8 | z2 B,2 [A,DF]4 | %8
[M:9/8] G,2 C- C B,2- B, G2 |[M:4/4] x8 | x8 | x8 | x8 | x8 | x8 | z2 B,2 [A,DF]4 | G,2 C2 B,4 | %17
 x8 | z2 G2 G2 z2 | x8 | D2 D2 D2 [DFA]2 | x8 | x8 | G2 G2 [Fd]4 |[M:7/8] [G,G]2 C2 [B,D]3 | %25
[M:4/4] x8 | z2 G2 G2 z2 | x8 | D2 D2 D2 [DFA]2 | x8 | x8 | G2 G2 [Fd]4 | %32
[M:7/8] [G,G]2 C2 [B,D]3 |] %33
V:4
 x8 | x8 | x8 | [D,B,]2 D,2 D,2 C,2 | x8 | x8 | x8 | [D,B,]2 D,2 D,2 C,2 |[M:9/8] x9 |[M:4/4] x8 | %10
 x2[K:treble] x6 | x8 | x8 | x8 | x8 | x8 | x8 | x8 | B,2- [G,B,-]2 [G,B,]2 z2 | x8 | x8 | x8 | %22
 x8 | [D,B,]2 [D,B,]2 D,2 C,2 |[M:7/8] x7 |[M:4/4][K:treble] x8 | B,2- [G,B,-]2 [G,B,]2 z2 | x8 | %28
 x8 | x8 | x8 | [D,B,]2 [D,B,]2 D,2 C,2 |[M:7/8] x7 |] %33

